X:2075
T:Rambling Pitchfork, The
M:6/8
K:DMaj
E|~F3 AFF|dFF AFD|~G3 ABc|ded cAG|
|~F3 AFF|dFF AFD|GFG BGB|AFD D2:|
|:A|d2e fed|ecA AFA|d2e f2g|faf gfe|
|d2e fed|ecA AGF|GFG BGB|AFD D2:|
